X:60
T:Kentish Krickiters. VWMLa.060
%%VWML:Anon2-3049-p36-0
F:http://www.vwml.org/record/Anon2/3049/p36
S:Anon. MS, late 18thC, Vaughan Williams Mem. Library
O:England;Yorkshire
Z:vmp/efdss.Simon Wilson. Reviewed PJH 2008.
M:C|
L:1/8
Q:1/2=90
K:D
B|AFdF AFDB|AFde !turn!c2EB|\
AFdF AFDf|edef d/d/dd2:|
|:(d/e/f/g/) af bgaf|gefd cee2|\
de/f/ af bgaf|edef d/d/dd2:|
T:Bird Catchers. VWMLa.061
R:Country-dance
S:Anon. MS, late 18thC, Vaughan Williams Mem. Library
O:England;Yorkshire
Z:vmp/efdss.Simon Wilson. Reviewed PJH 2008.
M:2/4
L:1/8
Q:2/4=80
K:D
"^F"d2d/c/d/e/|d2A2|"P"fage|fage|\
"^F"d2d/c/d/e/|d2A2|"P"fagf|f2e2:|
|:"^F"a2a2|a2gf|efge|dcBA|\
a2a2|a2fd|egec|d2D2:|
